icon/fa/train-tram.svg

<svg xmlns="http://www.w3.org/2000/svg" viewBox="0 0 448 512"><!--! Font Awesome Free 6.1.2 by @fontawesome - https://fontawesome.com License - https://fontawesome.com/license/free (Icons: CC BY 4.0, Fonts: SIL OFL 1.1, Code: MIT License) Copyright 2022 Fonticons, Inc.--><path d="M86.76 48c-12.15 0-23.64 5.52-31.23 15.01L42.74 78.99c-8.28 10.35-23.38 12.03-33.733 3.75-10.35-8.28-12.028-23.38-3.748-33.73L18.04 33.03A87.999 87.999 0 0 1 86.76 0H361.2c25.9 0 52.1 12.15 67.9 33.03l13.6 15.98c8.3 10.35 6.6 25.45-4.6 33.73-9.5 8.28-24.6 6.6-32.8-3.75l-12.8-15.98A40.064 40.064 0 0 0 361.2 48H248v48h40c53 0 96 42.1 96 96v160c0 30.6-14.3 57.8-36.6 75.4l65.5 65.5c7 7 2 19.1-8.8 19.1h-38.8c-8.5 0-16.7-3.4-22.7-9.4L288 448H160l-54.6 54.6c-6.03 6-14.17 9.4-22.66 9.4h-39.7c-9.98 0-14.98-12.1-7.92-19.1l65.48-65.5C78.3 409.8 64 382.6 64 352V192c0-53.9 42.1-96 96-96h40V48H86.76zM160 160c-17.7 0-32 14.3-32 32v32c0 17.7 14.3 32 32 32h128c17.7 0 32-14.3 32-32v-32c0-17.7-14.3-32-32-32H160zm0 160c-17.7 0-32 14.3-32 32s14.3 32 32 32 32-14.3 32-32-14.3-32-32-32zm128 64c17.7 0 32-14.3 32-32s-14.3-32-32-32-32 14.3-32 32 14.3 32 32 32z"/></svg>

<svg xmlns="http://www.w3.org/2000/svg" viewBox="0 0 448 512" height="1em" width="1em">
<!--! Font Awesome Free 6.1.2 by @fontawesome - https://fontawesome.com License - https://fontawesome.com/license/free (Icons: CC BY 4.0, Fonts: SIL OFL 1.1, Code: MIT License) Copyright 2022 Fonticons, Inc.-->
  <path d="M86.76 48C74.61 48 63.12 53.52 55.53 63.01L42.74 78.99C34.46 89.34 19.36 91.02 9.007 82.74C-1.343 74.46-3.021 59.36 5.259 49.01L18.04 33.03C34.74 12.15 60.03 0 86.76 0H361.2C387.1 0 413.3 12.15 429.1 33.03L442.7 49.01C451 59.36 449.3 74.46 438.1 82.74C428.6 91.02 413.5 89.34 405.3 78.99L392.5 63.01C384.9 53.52 373.4 48 361.2 48H248V96H288C341 96 384 138.1 384 192V352C384 382.6 369.7 409.8 347.4 427.4L412.9 492.9C419.9 499.9 414.9 512 404.1 512H365.3C356.8 512 348.6 508.6 342.6 502.6L288 448H160L105.4 502.6C99.37 508.6 91.23 512 82.74 512H43.04C33.06 512 28.06 499.9 35.12 492.9L100.6 427.4C78.3 409.8 64 382.6 64 352V192C64 138.1 106.1 96 160 96H200V48H86.76zM160 160C142.3 160 128 174.3 128 192V224C128 241.7 142.3 256 160 256H288C305.7 256 320 241.7 320 224V192C320 174.3 305.7 160 288 160H160zM160 320C142.3 320 128 334.3 128 352C128 369.7 142.3 384 160 384C177.7 384 192 369.7 192 352C192 334.3 177.7 320 160 320zM288 384C305.7 384 320 369.7 320 352C320 334.3 305.7 320 288 320C270.3 320 256 334.3 256 352C256 369.7 270.3 384 288 384z"/>
</svg>
